X: 201
T: Eliyahu HaNavi
M: C
S: MP3 file via email
L: 1/8
K: Gm^F
%%indent 200
"^Intro"c/d/c/B/ | "Cm"c4 z2 e/d/c/B/ | "D"A4 z c/d/c/B/ | "Cm"c4 z2 e/d/c/e/ | "D"d4 z4 
| "D"D2 D2 "Cm"E2 C2 | "D"D2 E2 F2 G2 | "Cm"E2 C2 "D"D4- | D2  z2 z3 D 
w: E-li-ha-hu le-tsa-rat ...
| "Gm"G2 GG G2 A2 | "D"FG FE F3 D | "Cm"E2 EE E2 G2 | "D"F3 E  D3 D 
| "Cm"E2 C2 G3  G | "D"AB AG A3 A | "Cm"c2 B2 A3  G | "D"FG FE D4 
|: "Bb"d3  d "Cm"e2 c2 | c2 B2 "D"A4 | A2 B2 c3  c | "Gm"Bc BA G4   | B3  B B2 AG 
w: E-li-ya-hu ha-Na-vi ha-tish-bi ...
| "Cm"FG FE C4 |1 "Cm"AG GF F2 G2 | "D"A6 z2 :|2 "Cm"AG GF F2 E2 | "D"D6 | c/d/c/B/ |
|  "Cm"c4 z2 e/d/c/B/ | "D"A4 z2 c/d/c/B/ | "Cm"c4 z2 e/d/c/e/ | "D"d4 z3 d | "Cm"cB AG FE DC | "D"D6 z2 |]



